X: 24312
T: Lough Fada
R: hornpipe
M: 4/4
K: Gmajor
|:BA|GBDB Gd (3Bcd|GBdg {a}gfdc|BGBd ABAG|(3FED (3FED {d}cAFA|
GBDB Gd (3Bcd|GBdg {a}gfdc|BGBd ABAG|(3FED cA G2:|
|:Bc|dedc BGBd|(3gab af gdBd|cBce dgBc|AD{d}cB ABce|
dedc BGBd|(3gab af gdBd|cB (3cBA FD^CD|(3FED cA G2:|

